X:1
T:Dansk Fædrelandssang
T:Dansk Fædrelandssang
T:Bind 1, No. 10
T:Hans Ernst Krøyer
T:A. Oehlenschläger
C:H. E. Krøyer
Z:A. Oehlenschläger
%%score [ 1 2 3 4 ]
L:1/8
Q:1/4=92
M:4/4
K:A
V:1 treble-8 nm="T1"
V:2 treble-8 nm="T2"
V:3 bass nm="B1"
V:4 bass nm="B2"
V:1
"^Maestoso"!mf! A | e3 e c2 A2 | !>!f4 z3 A | a3 a g2 f2 | f2 e2 z2 e2 | G3 G A2 B2 | %6
w: 1.Der|er et yn- digt|Land, det|staar med bre- de|Bø- ge nær|sal- ten Ø- ster-|
w: 2.Der|sad i For- dums|Tid de|har- nisk- klæd- te|Kjæm- per, ud-|hvi- le- de fra|
w: 3.Det|Land end- nu er|skjønt, ti|blaa sig Sø- en|bel- ter, og|Lø- vet staar saa|
!<(! c2 ^d2!<)! e2 f2 |!f! e4 ^d4 | e4 z2 z |:!mf! e | g3 g f2 e2 | e3 a a2 c2 | %12
w: strand, nær sal- ten|Ø- ster-|strand;|det|bug- ter sig i|Bak- ke, Dal, det|
w: Strid, ud- hvi- le-|de fra|Strid;|saa|drog de frem til|Dien- ders Men; nu|
w: grønt, og Lø- vet|staar saa|grønt;|og|æd- le Kvin- der,|skjøn- ne Mø'r og|
!<(! f3 f f2!<)! f2 | !>!f4 ^e2 z!f! =e | e2 ^d2 =d2 c2 | (f2 !>!a3) a g3/2 f/ | (f2 e4) G2 | %17
w: hed- der gam- le|Dan- mark, og|det er Fre- jas|Sal, _ ja! det er|Fre- * jas|
w: hvi- le de- res|Be- ne bag|Hø- jens Bau- ta-|sten, _ bag Hø- jens|Bau- * ta-|
w: Maænd og ra- ske|Sven- de be-|bo de Dan- skes|Øer, _ be- bo de|Dan- * skes|
 A4 z3 :| %18
w: Sal.|
w: sten.|
w: Øer.|
V:2
!mf! A | c3 A A2 A2 | !>!d4 z3 A | f3 f e2 d2 | d2 c2 z2 A2 | G3 G A2 G2 |!<(! A2 B2!<)! B2 c2 | %7
w: 1.Der|er et yn- digt|Land, det|staar med bre- de|Bø- ge nær|sal- ten Ø- ster-|strand, nær sal- ten|
w: 2.Der|sad i For- dums|Tid de|har- nisk- klæd- te|Kjæm- per, ud-|hvi- le- de fra|Strid, ud- hvi- le-|
w: 3.Det|Land end- nu er|skjønt, ti|blaa sig Sø- en|bel- ter, og|Lø- vet staar saa|grønt, og Lø- vet|
!f! B4 B4 | B4 z2 z |:!mf! B | d3 d d2 d2 | c3 c c2 B2 |!<(! A3 ^A B2!<)! ^B2 | !>!c4 c2 z!f! c | %14
w: Ø- ster-|strand;|det|bug- ter sig i|Bak- ke, Dal, det|hed- der gam- le|Dan- mark, og|
w: de fra|Strid;|saa|drog de frem til|Dien- ders Men; nu|hvi- le de- res|Be- ne bag|
w: staar saa|grønt;|og|æd- le Kvin- der,|skjøn- ne Mø'r og|Maænd og ra- ske|Sven- de be-|
 c2 B2 B2 A2 | (A2 !>!=c3) c c3/2 c/ | ^c4 d4 | c4 z3 :| %18
w: det er Fre- jas|Sal, _ ja! det er|Fre- jas|Sal.|
w: Hø- jens Bau- ta-|sten, _ bag Hø- jens|Bau- ta-|sten.|
w: bo de Dan- skes|Øer, _ be- bo de|Dan- skes|Øer.|
V:3
!mf! A, | A,3 C, E,2 A,2 | !>!A,4 z3 A, | A,3 A, A,2 A,2 | A,2 A,2 z2 C,2 | E,3 E, E,2 E,2 | %6
w: 1.Der|er et yn- digt|Land, det|staar med bre- de|Bø- ge nær|sal- ten Ø- ster-|
w: 2.Der|sad i For- dums|Tid de|har- nisk- klæd- te|Kjæm- per, ud-|hvi- le- de fra|
w: 3.Det|Land end- nu er|skjønt, ti|blaa sig Sø- en|bel- ter, og|Lø- vet staar saa|
!<(! E,2 F,2!<)! E,2 A,2 |!f! G,4 A,4 | G,4 z2 z |:!mf! G, | B,3 B, A,2 G,2 | A,3 E, E,2 ^E,2 | %12
w: strand, nær sal- ten|Ø- ster-|strand;|det|bug- ter sig i|Bak- ke, Dal, det|
w: Strid, ud- hvi- le-|de fra|Strid;|saa|drog de frem til|Dien- ders Men; nu|
w: grønt, og Lø- vet|staar saa|grønt;|og|æd- le Kvin- der,|skjøn- ne Mø'r og|
!<(! F,3 F, F,2!<)! F,2 | !>!G,4 G,2 z!f! =G, | F,2 F,2 E,2 E,2 | (D,2 !>!F,3) F, G,3/2 A,/ | %16
w: hed- der gam- le|Dan- mark, og|det er Fre- jas|Sal, _ ja! det er|
w: hvi- le de- res|Be- ne bag|Hø- jens Bau- ta-|sten, _ bag Hø- jens|
w: Maænd og ra- ske|Sven- de be-|bo de Dan- skes|Øer, _ be- bo de|
 (A,4 G,2) E,2 | C4 z3 :| %18
w: Fre- * jas|Sal.|
w: Bau- * ta-|sten.|
w: Dan- * skes|Øer.|
V:4
!mf! A,, | A,,3 A,, A,,2 A,2 | !>!D,4 z3 A,, | D,3 D, D,2 D,2 | A,,2 A,,2 z2 A,,2 | %5
w: 1.Der|er et yn- digt|Land, det|staar med bre- de|Bø- ge nær|
w: 2.Der|sad i For- dums|Tid de|har- nisk- klæd- te|Kjæm- per, ud-|
w: 3.Det|Land end- nu er|skjønt, ti|blaa sig Sø- en|bel- ter, og|
 D,3 D, C,2 B,,2 |!<(! A,,2 A,,2!<)! G,,2 A,,2 |!f! B,,4 B,,4 | E,4 z2 z |:!mf! E, | %10
w: sal- ten Ø- ster-|strand, nær sal- ten|Ø- ster-|strand;|det|
w: hvi- le- de fra|Strid, ud- hvi- le-|de fra|Strid;|saa|
w: Lø- vet staar saa|grønt, og Lø- vet|staar saa|grønt;|og|
 E,3 E, E,2 E,2 | A,,3 A,, A,,2 G,,2 |!<(! F,,3 E, D,2!<)! D,2 | !>!C,4 C,2 z!f! B,, | %14
w: bug- ter sig i|Bak- ke, Dal, det|hed- der gam- le|Dan- mark, og|
w: drog de frem til|Dien- ders Men; nu|hvi- le de- res|Be- ne bag|
w: æd- le Kvin- der,|skjøn- ne Mø'r og|Maænd og ra- ske|Sven- de be-|
 ^A,,2 B,,2 G,,2 =A,,2 | (D,2 !>!^D,3) D, D,3/2 D,/ | E,4 E,4 | A,,4 z3 :| %18
w: det er Fre- jas|Sal, _ ja! det er|Fre- jas|Sal.|
w: Hø- jens Bau- ta-|sten, _ bag Hø- jens|Bau- ta-|sten.|
w: bo de Dan- skes|Øer, _ be- bo de|Dan- skes|Øer.|

